svgs/regular/truck-moving.svg

<svg xmlns="http://www.w3.org/2000/svg" viewBox="0 0 640 512"><!--! Font Awesome Pro 6.3.0 by @fontawesome - https://fontawesome.com License - https://fontawesome.com/license (Commercial License) Copyright 2023 Fonticons, Inc. --><path d="M72 80c-13.3 0-24 10.7-24 24V326.7c9.8-4.3 20.6-6.7 32-6.7c26.2 0 49.4 12.6 64 32c14.6-19.4 37.8-32 64-32s49.4 12.6 64 32H432V104c0-13.3-10.7-24-24-24H72zM208 480c-26.2 0-49.4-12.6-64-32c-14.6 19.4-37.8 32-64 32c-44.2 0-80-35.8-80-80V352 304 104C0 64.2 32.2 32 72 32H408c39.8 0 72 32.2 72 72v40h48.8c16.8 0 32.7 7.5 43.3 20.5L631 236.4c5.8 7.1 9 16.1 9 25.3V272v16 80c0 17.7-14.3 32-32 32c0 44.2-35.8 80-80 80s-80-35.8-80-80h-8-8H288c0 44.2-35.8 80-80 80zM535 194.9c-1.5-1.9-3.8-2.9-6.2-2.9H480v64H585l-50-61.1zM528 432a32 32 0 1 0 0-64 32 32 0 1 0 0 64zM240 400a32 32 0 1 0 -64 0 32 32 0 1 0 64 0zM80 432a32 32 0 1 0 0-64 32 32 0 1 0 0 64z"/></svg>

<svg xmlns="http://www.w3.org/2000/svg" viewBox="0 0 640 512"><!--! Font Awesome Pro 6.2.0 by @fontawesome - https://fontawesome.com License - https://fontawesome.com/license (Commercial License) Copyright 2022 Fonticons, Inc. --><path d="M208 480C181.8 480 158.6 467.4 144 448C129.4 467.4 106.2 480 80 480C35.82 480 0 444.2 0 400V104C0 64.24 32.24 32 72 32H408C447.8 32 480 64.24 480 104V144H528.8C545.6 144 561.5 151.5 572.2 164.5L630.1 236.4C636.8 243.5 640 252.5 640 261.7V368C640 385.7 625.7 400 608 400C608 444.2 572.2 480 528 480C483.8 480 448 444.2 448 400H288C288 444.2 252.2 480 208 480zM48 104V326.7C57.8 322.4 68.62 320 80 320C106.2 320 129.4 332.6 144 351.1C158.6 332.6 181.8 320 208 320C234.2 320 257.4 332.6 272 352H432V104C432 90.75 421.3 80 408 80H72C58.75 80 48 90.75 48 104V104zM528.8 192H480V256H584.1L535 194.9C533.5 193.1 531.2 192 528.8 192V192zM528 432C545.7 432 560 417.7 560 400C560 382.3 545.7 368 528 368C510.3 368 496 382.3 496 400C496 417.7 510.3 432 528 432zM208 368C190.3 368 176 382.3 176 400C176 417.7 190.3 432 208 432C225.7 432 240 417.7 240 400C240 382.3 225.7 368 208 368zM80 432C97.67 432 112 417.7 112 400C112 382.3 97.67 368 80 368C62.33 368 48 382.3 48 400C48 417.7 62.33 432 80 432z"/></svg>
